projects/jtProject/images/icons/SVG-raw/share.svg

<svg width="24" height="24" viewBox="0 0 24 24" version="1.1" xmlns="http://www.w3.org/2000/svg" xmlns:xlink="http://www.w3.org/1999/xlink">
<g id="Canvas" transform="translate(-1697 -5525)">
<g id="iconShare">
<g id="Ellipse">
<use xlink:href="#path0_fill" transform="translate(1697 5525)" fill="#FFFFFF"/>
</g>
<g id="Vector">
<use xlink:href="#path1_stroke" transform="translate(1705 5533)" fill="#E0E0E0"/>
</g>
</g>
</g>
<defs>
<path id="path0_fill" d="M 24 12C 24 18.6274 18.6274 24 12 24C 5.37258 24 0 18.6274 0 12C 0 5.37258 5.37258 0 12 0C 18.6274 0 24 5.37258 24 12Z"/>
<path id="path1_stroke" d="M 4 0L 4.70711 -0.707107C 4.31658 -1.09763 3.68342 -1.09763 3.29289 -0.707107L 4 0ZM 3 5C 3 5.55228 3.44772 6 4 6C 4.55228 6 5 5.55228 5 5L 3 5ZM 1 5C 1 4.44772 0.552285 4 0 4C -0.552285 4 -1 4.44772 -1 5L 1 5ZM 0 8L -1 8C -1 8.55229 -0.552285 9 2.22045e-16 9L 0 8ZM 8 8L 8 9C 8.55229 9 9 8.55229 9 8L 8 8ZM 9 5C 9 4.44772 8.55229 4 8 4C 7.44772 4 7 4.44772 7 5L 9 5ZM 1.29289 1.29289C 0.902369 1.68342 0.902369 2.31658 1.29289 2.70711C 1.68342 3.09763 2.31658 3.09763 2.70711 2.70711L 1.29289 1.29289ZM 5.29289 2.70711C 5.68342 3.09763 6.31658 3.09763 6.70711 2.70711C 7.09763 2.31658 7.09763 1.68342 6.70711 1.29289L 5.29289 2.70711ZM 3 0L 3 5L 5 5L 5 0L 3 0ZM -1 5L -1 8L 1 8L 1 5L -1 5ZM 0 9L 8 9L 8 7L 0 7L 0 9ZM 9 8L 9 5L 7 5L 7 8L 9 8ZM 2.70711 2.70711L 4.70711 0.707107L 3.29289 -0.707107L 1.29289 1.29289L 2.70711 2.70711ZM 6.70711 1.29289L 4.70711 -0.707107L 3.29289 0.707107L 5.29289 2.70711L 6.70711 1.29289Z"/>
</defs>
</svg>

<svg width="24" height="24" xmlns="http://www.w3.org/2000/svg" xmlns:xlink="http://www.w3.org/1999/xlink"><use xlink:href="#path0_fill" fill="#FFF"/><use xlink:href="#path1_stroke" transform="translate(8 8)" fill="#E0E0E0"/><defs><path id="path0_fill" d="M24 12c0 6.627-5.373 12-12 12S0 18.627 0 12 5.373 0 12 0s12 5.373 12 12z"/><path id="path1_stroke" d="M4 0l.707-.707a1 1 0 0 0-1.414 0L4 0zM3 5a1 1 0 0 0 2 0H3zM1 5a1 1 0 0 0-2 0h2zM0 8h-1a1 1 0 0 0 1 1V8zm8 0v1a1 1 0 0 0 1-1H8zm1-3a1 1 0 1 0-2 0h2zM1.293 1.293a1 1 0 0 0 1.414 1.414L1.293 1.293zm4 1.414a1 1 0 0 0 1.414-1.414L5.293 2.707zM3 0v5h2V0H3zm-4 5v3h2V5h-2zm1 4h8V7H0v2zm9-1V5H7v3h2zM2.707 2.707l2-2L3.293-.707l-2 2 1.414 1.414zm4-1.414l-2-2L3.293.707l2 2 1.414-1.414z"/></defs></svg>
